packages/foundations/assets/icons/functional/images/security/lock_open_32.svg

<svg width="32" height="32" viewBox="0 0 32 32" fill="none" xmlns="http://www.w3.org/2000/svg">
<g clip-path="url(#clip0_187_250)">
<path fill-rule="evenodd" clip-rule="evenodd" d="M15.9994 2.49835C19.4971 2.49835 22.4515 5.01973 22.9319 8.38146C23.01 8.92819 22.6302 9.43474 22.0834 9.51286C21.5367 9.59099 21.0301 9.21111 20.952 8.66438C20.6134 6.29469 18.5085 4.49835 15.9994 4.49835C13.3047 4.49835 11.0033 6.58368 10.9994 9.33346C10.9979 10.3891 10.9978 11.4447 10.9991 12.5004L22.9994 12.5004C24.5971 12.5004 25.9994 13.785 25.9994 15.5004C26.0011 19.167 26.0011 22.8337 25.9994 26.5004C25.9994 28.0981 24.6855 29.5004 22.9994 29.5004C18.3327 29.5021 13.6661 29.5021 8.99939 29.5004C7.40171 29.5004 5.99939 28.2164 5.99939 26.5004V15.5004C5.99939 13.9027 7.28384 12.5004 8.99939 12.5004V9.33346C8.99939 5.5522 12.1395 2.49835 15.9994 2.49835ZM22.9994 14.5003C14.2458 14.5003 9.57915 14.5003 8.99939 14.5003C8.34242 14.5003 7.99975 14.9048 7.99939 15.5004V26.5004C7.99939 27.0132 8.40996 27.5001 8.99939 27.5004C13.666 27.5026 18.3326 27.5026 22.9994 27.5004C23.5122 27.5004 23.999 27.0851 23.9994 26.5004C24.0016 22.8338 24.0016 19.1671 23.9994 15.5004C23.9994 14.9876 23.5909 14.5007 22.9994 14.5003ZM15.9994 17.5004C17.104 17.5004 17.9994 18.3958 17.9994 19.5004C17.9994 20.2402 17.5977 20.8863 17.0005 21.2322L16.9994 23.5135C16.9994 24.0658 16.5517 24.5135 15.9994 24.5135C15.4866 24.5135 15.0011 24.1013 14.9994 23.5135L14.9993 21.2328C14.4016 20.887 13.9994 20.2407 13.9994 19.5004C13.9994 18.3958 14.8948 17.5004 15.9994 17.5004Z" fill="#1A1C1F"/>
</g>
<defs>
<clipPath id="clip0_187_250">
<rect width="32" height="32" fill="white"/>
</clipPath>
</defs>
</svg>

<svg xmlns="http://www.w3.org/2000/svg" width="32" height="32" fill="none"><g clip-path="url(#a)"><path fill="#1A1C1F" fill-rule="evenodd" d="M16 2.498c3.497 0 6.451 2.522 6.932 5.883a1 1 0 1 1-1.98.283c-.339-2.37-2.443-4.166-4.953-4.166-2.694 0-4.996 2.086-5 4.835V12.5h12c1.598 0 3 1.285 3 3q.003 5.5 0 11c0 1.598-1.313 3-3 3q-7 .003-14 0c-1.597 0-3-1.284-3-3v-11c0-1.597 1.285-3 3-3V9.333c0-3.78 3.14-6.835 7-6.835M23 14.5H9c-.658 0-1 .405-1 1v11c0 .513.41 1 1 1q7 .005 14 0c.512 0 .999-.415 1-1q.003-5.5 0-11a1 1 0 0 0-1-1m-7 3a2 2 0 0 1 1 3.732v2.282a1 1 0 1 1-2 0v-2.281a2 2 0 0 1 1-3.733" clip-rule="evenodd"/></g><defs><clipPath id="a"><path fill="#fff" d="M0 0h32v32H0z"/></clipPath></defs></svg>
